X:1
T:Title
%%score { 1 | ( 2 3 ) }
L:1/8
M:4/4
K:G
V:1 treble nm="Grand Piano"
V:2 bass 
V:3 bass 
V:1
 z4 z2[Q:1/4=100] [B,D]2 | [B,D]2 [DG]>A B2 [^DB][DA] | [EG]2 [EG]>[CE] [CE] [B,D]2 [B,D] | %3
 [B,D]2 [DG]>A B2 AB | d2 B>G [FA]2 [CD]2 | [B,D]2 [DG]>A B2 [^DB][DA] | %6
 [EG]2 [EG]>[CE] [CE] [B,D]2 [B,D] | [DG]2 A>B .[Ed]2 [G,CE][CEA] | %8
[M:3/4] [B,DG]2 [A,DF]>[CDF] [B,DG]2 |[M:1/4] [Gd]2 |[M:4/4] [Fd]2 [FA]>[Ac] [Ac] [GB]2 [Gd] | %11
 [Fd]2 [FA]>[Ac] [Ac] B2 B | [^DB]2 [DF]>[DF] G2 BB |[M:9/8] A2 B- B/[G^c]/ [Fd]2- [Fd] [CD]2 | %14
[M:4/4] [B,D]2 [DG]>A B2 [^DB][DA] | [EG]2 [EG]>[CE] [CE] [B,D]2 [B,D] | %16
 [DG]2 A>B .[Ed]2 [G,CE][CEA] |[M:7/4] [B,DG]2 [A,DF]>[CDF] [B,DG]2 z2 z2 z4 |] %18
V:2
 z4 z2 [G,,G,]2 | [G,,G,]2 [B,,G,]>[D,F,D] [G,D]2 [B,,F,][B,,F,] | %2
 [C,E,]2 [C,C]>[C,G,] [G,,G,] [G,,G,]2 [G,,G,] | %3
 [G,,G,]2 [B,,G,]>[D,F,D][K:treble] [G,D]2 [G,CG][A,DG] | %4
 [G,B,G]2 [G,DG]>[K:bass][E,^C] [D,D]2 [D,A,]2 | [G,,G,]2 [B,,G,]>[D,F,D] [G,D]2 [B,,F,][B,,F,] | %6
 [C,E,]2 [C,C]>[C,G,] [G,,G,] [G,,G,]2 [G,,G,] | [B,,G,]2 [D,F,D]>[G,D] z[K:treble] c[K:bass]C,C, | %8
[M:3/4] D,2 D,>D, G,,2 |[M:1/4] [G,B,]2 |[M:4/4] [D,A,]2 [D,D]>[F,D] [G,D] [G,D]2 [G,B,] | %11
 [D,A,]2 [D,D]>[F,D][K:treble] [G,D] [G,DG]2[K:bass] [G,D] | %12
 [B,,F,]2 [B,,B,]>[B,,B,] [E,B,E]2[K:treble] [G,^D][G,=DG] | %13
[M:9/8] [A,DF]2 [A,^CG]- [A,CG]/[K:bass][A,,A,]/ [D,A,]2- [D,A,] [D,A,]2 | %14
[M:4/4] [G,,G,]2 [B,,G,]>[D,F,D] [G,D]2 [B,,F,][B,,F,] | %15
 [C,E,]2 [C,C]>[C,G,] [G,,G,] [G,,G,]2 [G,,G,] | [B,,G,]2 [D,F,D]>[G,D] z[K:treble] c[K:bass]C,C, | %17
[M:7/4] D,2 D,>D, G,,2 z2 z2 z4 |] %18
V:3
 x8 | x8 | x8 | x4[K:treble] x4 | x7/2[K:bass] x9/2 | x8 | x8 | z4 [C,G,]2[K:treble][K:bass] z2 | %8
[M:3/4] x6 |[M:1/4] x2 |[M:4/4] x8 | x4[K:treble] x3[K:bass] x | x6[K:treble] x2 | %13
[M:9/8] x7/2[K:bass] x11/2 |[M:4/4] x8 | x8 | z4 [C,G,]2[K:treble][K:bass] z2 |[M:7/4] x14 |] %18

